X: 801
T: Gel Terennüm Eyle
C: Ahmet Avni Konuk
O: Turkey
F: http://compmusic.upf.edu/node/140
N: zevkidil--kupe--devrirevanihindi--gel--ahmet_avni_konuk
N: makam= zevkidil
N: form= kupe
N: usul= devrirevanihindi = 14/8
M: 14/8
L: 1/16
K: C _1/4B ^f  
Q: 1/4=102
%%MIDI tuningsystem comma53
g4 a2_b4b2 baa4ga abag ^3/4f2z2  | \
w:  Gel  te ren *  *  *  nüm   | 
d2_3/4e2 ^3/4f2g2 gffe {f}edd2 f2ed d3g fag2  | 
w:  ey *  le  câ *  *  *  *  *  *  *  nâ   | 
g4 g2ag g^3/4fg4a2 g2f2 gf_3/4ef e2.d2  | \
w:  Zevk_ i  Dil *  *  *  *  den   | 
d_3/4ed2 c2d^3/4f eddc {d}c_2/4Bc2 Bcd/e/d/c/ c6z2  | 
w:  nağ *  *  *  *  *  *  *  me *  *  *  *  ler    | 
d4 a2g2 =f2e2 d2de d2cB dcB^A B2z2  | \
w:  Tâ ze  tâ *  *  *  ze   | 
A_2/4BA2 B2c3ed2 c2B2 A2B2 dcBA G2z2  | 
w:  nağ *  *  me  â *  *  *  râ  | 
d4 d2^3/4c2 d2_7/8e2 edd4{e}dc c_7/8BBA G2z2  | \
w:  lık da  gös *  *  *  *  ter   | 
A4 c2c_2/4B BAAB AGG2 ^3/4F2AG G6z2  | 
w:  bir  *  *  *  *  *  hü *  *  *  ner    | 
|


